src/_includes/images/logo.svg

<svg
  class="h-full"
  fill="none"
  viewBox="0 0 1647 385"
  xmlns="http://www.w3.org/2000/svg"
>
  <path
    d="m6.653 1.25c-0.642 1.809-4.413 19.184-4.186 19.284 0.106 0.047 3.117 0.572 6.692 1.168 15.078 2.513 26.361 9.961 31.099 20.528 4.49 10.014 4.291 11.287-18.471 117.77-11.345 53.075-20.888 97.738-21.207 99.25l-0.58 2.75h223.17l-0.255 11.534-0.256 11.533-7.5 0.374c-20.199 1.007-34.39 9.487-37.012 22.118-2.911 14.019 7.885 37.55 23.244 50.666 15.403 13.154 30.735 19.359 60.287 24.4 13.063 2.228 41.99 2.256 55.981 0.054 27.629-4.35 47.62-13.885 63.613-30.344 15.453-15.903 26.601-37.17 33.79-64.46 2.849-10.818 38.097-172.54 38.097-174.8 0-0.755-18.821-1.075-63.33-1.075h-63.329l-1.744 8.25c-0.959 4.538-1.984 9.262-2.279 10.5-0.454 1.912-0.127 2.25 2.179 2.25 4.202 0 14.341 2.884 19.718 5.609 7.004 3.549 12.332 8.765 15.438 15.114 4.495 9.187 3.959 13.967-7.591 67.777-5.548 25.85-11.413 51.275-13.032 56.5-5.07 16.357-12.684 26.722-23.576 32.093-8.198 4.042-17.066 5.417-26.661 4.135-24.011-3.208-35.839-19.561-32.873-45.447 0.689-6.012 27.236-131.9 32.586-154.53l0.532-2.25h-130.86l-2.089 9.076c-1.15 4.991-2.09 9.628-2.09 10.305 0 0.751 2.915 1.719 7.494 2.488 9.083 1.526 20.151 6.824 24.423 11.69 8.161 9.294 9.691 18.58 6.086 36.925l-2.263 11.516h-47.37c-26.053 0-47.37-0.192-47.37-0.427 0-0.538 39.892-188.27 40.654-191.32l0.563-2.25h-64.64c-50.809 0-64.735 0.267-65.083 1.25zm588.21 18.376c-0.39 0.389-0.708 78.257-0.708 173.04v172.33h15.006l-0.253-172.75-0.253-172.75-6.542-0.291c-3.599-0.16-6.861 0.028-7.25 0.417zm216.29 35.023c-16.332 3.031-27.168 8.287-36.577 17.74-11.887 11.945-15.962 23.369-15.191 42.585 1.033 25.713 10.561 40.179 46.271 70.25 23.525 19.811 30.082 26.071 36.189 34.551 5.58 7.747 8.211 14.495 9.243 23.7 3.219 28.702-15.996 49.573-45.579 49.508-21.16-0.047-37.183-8.557-43.887-23.308-2.121-4.666-3.979-13.033-4.703-21.175-0.16-1.808-0.833-3-1.694-3-2.326 0-3.022 4.892-3.72 26.14l-0.662 20.141 2.468 2.467c2.847 2.848 11.288 6.232 21.342 8.558 11.029 2.55 38.574 2.196 48.878-0.63 13.834-3.793 22.141-8.476 31.169-17.57 13.38-13.478 19.453-28.341 19.453-47.606 0-28.178-12.041-46.361-51.5-77.772-20.871-16.614-34.974-30.575-38.709-38.318-5.155-10.689-5.475-25.733-0.755-35.484 7.992-16.509 27.29-23.681 50.706-18.844 11.376 2.35 20.226 7.394 24.169 13.775 1.684 2.726 3.37 8.463 5.552 18.893 0.693 3.313 3.318 3.644 3.954 0.5 0.251-1.237 0.697-10.835 0.991-21.327l0.535-19.078-13.221-2.375c-12.61-2.266-37.937-3.58-44.722-2.321zm322.37 1.101c-0.47 0.962-1.11 51.925-1.43 113.25-0.39 75.087-0.93 112.73-1.66 115.27-1.81 6.314-3.86 8.525-9.46 10.187-2.85 0.847-6.92 1.54-9.03 1.54-3.59 0-6.08 2.044-4.46 3.66 0.78 0.782 73.51 0.829 74.29 0.048 0.35-0.342 0.39-1.247 0.09-2.01-0.35-0.93-3.04-1.601-8.12-2.031-17.23-1.456-20.06-5.581-21.72-31.667-0.97-15.409-5.01-159.19-4.48-159.72 0.15-0.153 11.31 11.984 24.79 26.971 67.93 75.491 160.46 171.75 165.1 171.75 0.88 0 1.97-0.562 2.41-1.25 0.45-0.687 1.06-51.65 1.37-113.25 0.4-81.64 0.87-112.92 1.72-115.41 1.86-5.426 4.87-7.884 11.1-9.086 9.74-1.876 10.12-2.01 10.12-3.523 0-0.815-0.34-1.525-0.75-1.578-2.65-0.343-68.99-0.444-70-0.107-1.77 0.59-1.55 2.873 0.33 3.597 0.87 0.334 3.32 0.607 5.45 0.607 6.71 0 14.03 2.081 17.16 4.877 5.64 5.041 5.71 5.913 7.83 98.123 1.06 46.475 1.93 86.075 1.92 88l-0.02 3.5-5.13-5.5c-2.83-3.025-16.65-18.086-30.72-33.469-14.06-15.383-38.35-41.708-53.97-58.5-15.63-16.792-44.13-47.518-63.36-68.281-20.93-22.616-35.66-37.75-36.73-37.75-0.99 0-2.18 0.788-2.64 1.75zm-82.37 1.563c-1.84 0.875-18.84 1.194-64.727 1.213-44.951 0.018-62.539 0.339-63.357 1.157-1.671 1.671 1.429 2.95 8.655 3.572 8.086 0.696 13.645 3.624 16.04 8.445 1.803 3.629 1.901 7.986 2.186 96.8 0.185 57.739-0.09 97.31-0.723 104.37-1.501 16.709-4.782 21.812-14.711 22.875-6.083 0.651-8.285 2.113-5.857 3.888 1.268 0.927 6.579 1.094 21.341 0.671 10.808-0.309 36.527-0.067 57.153 0.539 42.34 1.244 48.36 0.91 51.16-2.84 3.23-4.341 7.46-38.877 4.95-40.429-1.46-0.907-2.73 1.563-4.51 8.819-3.88 15.781-9.18 19.68-29.6 21.771-12.27 1.257-31.674 0.423-38.703-1.664-5.559-1.651-8.394-4.231-11-10.01-1.633-3.621-1.827-8.313-2.11-51.244-0.276-41.877-0.136-47.325 1.233-47.85 0.849-0.326 12.664-0.103 26.26 0.495 22.43 0.988 25.12 1.297 29.21 3.351 5.79 2.908 8.22 6.337 8.78 12.398 0.69 7.507 1.25 9.364 2.8 9.364 1.73 0 2.23-2.832 3.05-17.5 0.34-6.05 1.21-14.6 1.93-19 1.71-10.403 0.7-12.033-4.36-7.088-5.05 4.929-9.18 5.514-41.09 5.822l-27.501 0.266v-94l18-0.294c30.301-0.496 43.751 1.95 48.761 8.871 1.03 1.418 2.43 5.917 3.12 9.999 0.91 5.4 1.7 7.508 2.88 7.736 1.97 0.378 2.32-1.455 3.73-19.246 0.57-7.114 1.5-14.662 2.07-16.773 1.54-5.719 0.14-6.95-5.06-4.48zm352.26 2.24c-2.48 1.809 0.58 3.148 8.41 3.681 8.74 0.595 13.1 2.878 15.83 8.294 1.96 3.893 2 5.963 2 103.47 0 102.44-0.13 106.2-3.97 114.3-2.05 4.307-4.42 5.611-11.57 6.358-6.11 0.638-7.99 1.706-6.19 3.505 0.59 0.594 12.18 1.117 28.86 1.302 15.33 0.17 33.72 0.792 40.87 1.383 22.04 1.821 52.52 1.452 65.67-0.796 33.82-5.782 58.87-20.305 77.24-44.777 17.13-22.817 25.76-49.488 25.82-79.779 0.07-32.307-9.92-59.355-29.65-80.269-19.16-20.309-43.48-31.357-80.08-36.383-11.75-1.614-131.08-1.878-133.24-0.295zm115.14 11.955c28.6 4.247 50.91 15.358 68.71 34.222 22.7 24.069 33.47 57.815 29.9 93.738-4.08 41.081-19.51 65.764-51.01 81.558-16.32 8.184-31.28 11.361-53 11.255-32.57-0.159-49.92-5.421-53-16.075-0.59-2.038-1.5-11.581-2.01-21.206-1.04-19.527-1.35-173.95-0.36-178.91 0.35-1.738 1.52-3.636 2.61-4.218 5.77-3.086 38.44-3.29 58.16-0.363z"
    clip-rule="evenodd"
    fill="currentColor"
    fill-rule="evenodd"
  />
</svg>

<svg class="h-full" viewBox="0 0 1647 385" fill="none" xmlns="http://www.w3.org/2000/svg">
  <path fill-rule="evenodd" clip-rule="evenodd" d="M6.653 1.25C6.011 3.059 2.24 20.434 2.467 20.534C2.573 20.581 5.584 21.106 9.159 21.702C24.237 24.215 35.52 31.663 40.258 42.23C44.748 52.244 44.549 53.517 21.787 160C10.442 213.075 0.899 257.738 0.58 259.25L0 262H111.585H223.17L222.915 273.534L222.659 285.067L215.159 285.441C194.96 286.448 180.769 294.928 178.147 307.559C175.236 321.578 186.032 345.109 201.391 358.225C216.794 371.379 232.126 377.584 261.678 382.625C274.741 384.853 303.668 384.881 317.659 382.679C345.288 378.329 365.279 368.794 381.272 352.335C396.725 336.432 407.873 315.165 415.062 287.875C417.911 277.057 453.159 115.332 453.159 113.075C453.159 112.32 434.338 112 389.829 112H326.5L324.756 120.25C323.797 124.788 322.772 129.512 322.477 130.75C322.023 132.662 322.35 133 324.656 133C328.858 133 338.997 135.884 344.374 138.609C351.378 142.158 356.706 147.374 359.812 153.723C364.307 162.91 363.771 167.69 352.221 221.5C346.673 247.35 340.808 272.775 339.189 278C334.119 294.357 326.505 304.722 315.613 310.093C307.415 314.135 298.547 315.51 288.952 314.228C264.941 311.02 253.113 294.667 256.079 268.781C256.768 262.769 283.315 136.878 288.665 114.25L289.197 112H223.768H158.338L156.249 121.076C155.099 126.067 154.159 130.704 154.159 131.381C154.159 132.132 157.074 133.1 161.653 133.869C170.736 135.395 181.804 140.693 186.076 145.559C194.237 154.853 195.767 164.139 192.162 182.484L189.899 194H142.529C116.476 194 95.159 193.808 95.159 193.573C95.159 193.035 135.051 5.301 135.813 2.25L136.376 0H71.736C20.927 0 7.001 0.267 6.653 1.25ZM594.867 19.626C594.477 20.015 594.159 97.883 594.159 192.667V365H601.662H609.165L608.912 192.25L608.659 19.5L602.117 19.209C598.518 19.049 595.256 19.237 594.867 19.626ZM811.159 54.649C794.827 57.68 783.991 62.936 774.582 72.389C762.695 84.334 758.62 95.758 759.391 114.974C760.424 140.687 769.952 155.153 805.662 185.224C829.187 205.035 835.744 211.295 841.851 219.775C847.431 227.522 850.062 234.27 851.094 243.475C854.313 272.177 835.098 293.048 805.515 292.983C784.355 292.936 768.332 284.426 761.628 269.675C759.507 265.009 757.649 256.642 756.925 248.5C756.765 246.692 756.092 245.5 755.231 245.5C752.905 245.5 752.209 250.392 751.511 271.64L750.849 291.781L753.317 294.248C756.164 297.096 764.605 300.48 774.659 302.806C785.688 305.356 813.233 305.002 823.537 302.176C837.371 298.383 845.678 293.7 854.706 284.606C868.086 271.128 874.159 256.265 874.159 237C874.159 208.822 862.118 190.639 822.659 159.228C801.788 142.614 787.685 128.653 783.95 120.91C778.795 110.221 778.475 95.177 783.195 85.426C791.187 68.917 810.485 61.745 833.901 66.582C845.277 68.932 854.127 73.976 858.07 80.357C859.754 83.083 861.44 88.82 863.622 99.25C864.315 102.563 866.94 102.894 867.576 99.75C867.827 98.513 868.273 88.915 868.567 78.423L869.102 59.345L855.881 56.97C843.271 54.704 817.944 53.39 811.159 54.649ZM1133.53 55.75C1133.06 56.712 1132.42 107.675 1132.1 169C1131.71 244.087 1131.17 281.732 1130.44 284.273C1128.63 290.587 1126.58 292.798 1120.98 294.46C1118.13 295.307 1114.06 296 1111.95 296C1108.36 296 1105.87 298.044 1107.49 299.66C1108.27 300.442 1181 300.489 1181.78 299.708C1182.13 299.366 1182.17 298.461 1181.87 297.698C1181.52 296.768 1178.83 296.097 1173.75 295.667C1156.52 294.211 1153.69 290.086 1152.03 264C1151.06 248.591 1147.02 104.811 1147.55 104.28C1147.7 104.127 1158.86 116.264 1172.34 131.251C1240.27 206.742 1332.8 303 1337.44 303C1338.32 303 1339.41 302.438 1339.85 301.75C1340.3 301.063 1340.91 250.1 1341.22 188.5C1341.62 106.86 1342.09 75.576 1342.94 73.09C1344.8 67.664 1347.81 65.206 1354.04 64.004C1363.78 62.128 1364.16 61.994 1364.16 60.481C1364.16 59.666 1363.82 58.956 1363.41 58.903C1360.76 58.56 1294.42 58.459 1293.41 58.796C1291.64 59.386 1291.86 61.669 1293.74 62.393C1294.61 62.727 1297.06 63 1299.19 63C1305.9 63 1313.22 65.081 1316.35 67.877C1321.99 72.918 1322.06 73.79 1324.18 166C1325.24 212.475 1326.11 252.075 1326.1 254L1326.08 257.5L1320.95 252C1318.12 248.975 1304.3 233.914 1290.23 218.531C1276.17 203.148 1251.88 176.823 1236.26 160.031C1220.63 143.239 1192.13 112.513 1172.9 91.75C1151.97 69.134 1137.24 54 1136.17 54C1135.18 54 1133.99 54.788 1133.53 55.75ZM1051.16 57.313C1049.32 58.188 1032.32 58.507 986.433 58.526C941.482 58.544 923.894 58.865 923.076 59.683C921.405 61.354 924.505 62.633 931.731 63.255C939.817 63.951 945.376 66.879 947.771 71.7C949.574 75.329 949.672 79.686 949.957 168.5C950.142 226.239 949.867 265.81 949.234 272.866C947.733 289.575 944.452 294.678 934.523 295.741C928.44 296.392 926.238 297.854 928.666 299.629C929.934 300.556 935.245 300.723 950.007 300.3C960.815 299.991 986.534 300.233 1007.16 300.839C1049.5 302.083 1055.52 301.749 1058.32 297.999C1061.55 293.658 1065.78 259.122 1063.27 257.57C1061.81 256.663 1060.54 259.133 1058.76 266.389C1054.88 282.17 1049.58 286.069 1029.16 288.16C1016.89 289.417 997.486 288.583 990.457 286.496C984.898 284.845 982.063 282.265 979.457 276.486C977.824 272.865 977.63 268.173 977.347 225.242C977.071 183.365 977.211 177.917 978.58 177.392C979.429 177.066 991.244 177.289 1004.84 177.887C1027.27 178.875 1029.96 179.184 1034.05 181.238C1039.84 184.146 1042.27 187.575 1042.83 193.636C1043.52 201.143 1044.08 203 1045.63 203C1047.36 203 1047.86 200.168 1048.68 185.5C1049.02 179.45 1049.89 170.9 1050.61 166.5C1052.32 156.097 1051.31 154.467 1046.25 159.412C1041.2 164.341 1037.07 164.926 1005.16 165.234L977.659 165.5V118.5V71.5L995.659 71.206C1025.96 70.71 1039.41 73.156 1044.42 80.077C1045.45 81.495 1046.85 85.994 1047.54 90.076C1048.45 95.476 1049.24 97.584 1050.42 97.812C1052.39 98.19 1052.74 96.357 1054.15 78.566C1054.72 71.452 1055.65 63.904 1056.22 61.793C1057.76 56.074 1056.36 54.843 1051.16 57.313ZM1403.42 59.553C1400.94 61.362 1404 62.701 1411.83 63.234C1420.57 63.829 1424.93 66.112 1427.66 71.528C1429.62 75.421 1429.66 77.491 1429.66 175C1429.66 277.438 1429.53 281.205 1425.69 289.304C1423.64 293.611 1421.27 294.915 1414.12 295.662C1408.01 296.3 1406.13 297.368 1407.93 299.167C1408.52 299.761 1420.11 300.284 1436.79 300.469C1452.12 300.639 1470.51 301.261 1477.66 301.852C1499.7 303.673 1530.18 303.304 1543.33 301.056C1577.15 295.274 1602.2 280.751 1620.57 256.279C1637.7 233.462 1646.33 206.791 1646.39 176.5C1646.46 144.193 1636.47 117.145 1616.74 96.231C1597.58 75.922 1573.26 64.874 1536.66 59.848C1524.91 58.234 1405.58 57.97 1403.42 59.553ZM1518.56 71.508C1547.16 75.755 1569.47 86.866 1587.27 105.73C1609.97 129.799 1620.74 163.545 1617.17 199.468C1613.09 240.549 1597.66 265.232 1566.16 281.026C1549.84 289.21 1534.88 292.387 1513.16 292.281C1480.59 292.122 1463.24 286.86 1460.16 276.206C1459.57 274.168 1458.66 264.625 1458.15 255C1457.11 235.473 1456.8 81.046 1457.79 76.089C1458.14 74.351 1459.31 72.453 1460.4 71.871C1466.17 68.785 1498.84 68.581 1518.56 71.508Z" fill="currentColor"></path>
</svg>
